X: 22460
T: Lady Anne Montgomery
R: reel
M: 4/4
K: Dmajor
AG|FADA FADA|FADA BAdA|FADF EDEF|DBAB D2AG|
FADF ADFA|DEED BABc|d2AF EDEF|DBAB d2:|ze|:
f3a fede|fedB ABde|fafa fede|f2af fede|
f3a fede|fedB ABde|fded BdAB|1 deed d2ag:|2 deed d2||

